X: 19
T: Paddy O'Rafferty
R: jig
M: 6/8
L: 1/8
K: Dmaj
|:dff cee|def gfe|dff cee|dg/f/e dBA|
dff cee|def g3|afd g/f/ed|dfe dBA:||
|:AFA Adf|gfe fdB|A3 AFA|dg/f/e dBA|
AFA BGB|efe efg|afd g/f/ed|dg/f/e dBA:||
|:fAA eAA|def gfe|fAA eAA|dg/f/e dBA|
fAA eAA|def g3|afd g/f/ed|dfe dBA:||


Tune 741	Setting 24523

